X: 2101
T: Coolun
O: Irish
%R: air, strathspey, reel
B: Niel Gow & Sons "Complete Repository" v.2 p.10 #1
Z: 2021 John Chambers <jc:trillian.mit.edu>
N: V:2 has no repeats; copied from V:1.
M: 3/4
L: 1/8
Q: "SLOW"
K: D
% - - - - - - - - - -
V: 1 staves=2 clef=treble
(3ABc) |\
d2 ~d>f (f/e/).d/.c/ | ~d2 A2 (3DFA | d2 (de/f/) {f}e>d | (d2 c)z ~d>c |\
~B2- Bc/d/ (e/d/)(c/B/) | A2 (FA)(d>A) | (c/B/).A/.G/ F2 TE2 | [D4A,4F,4] :|
|: A>G |\
~F>E(DE)(FG) | A>^G ABcA | ~d>c (de/f/) {f}e>d | (d2 c2) d>c |\
~B2 (B/c/d/c/) (e/d/)(c/B/) | A2 (FA)d>A | (c/B/)(A/G/) F2 TE2 | [D4A,4F,4] :|
% - - - - - - - - - -
% Voice 2 preserves the staff layout in the book.
V: 2 clef=bass middle=d
z2 |\
d4 A2 | D2 d2 z2 | d2 b2 ^g2 | a4 f2 |\
g2 G2 z2 | f2 d2 F2 | g2 A2 A2 | [d4D4] :|
|: z2 |\
[d4a4] [d2a2] | [c4a4] [c2a2] | [B4^g4] [B2g2] | a2 A2 f2 |\
g2 G2 z2 | f2 d2 F2 | G2 A2 A2 | D4 :|
